; generated by Slic3r 1.2.9 on 2017-07-23 at 16:52:52

; external perimeters extrusion width = 0.40mm
; perimeters extrusion width = 0.48mm
; infill extrusion width = 0.48mm
; solid infill extrusion width = 0.48mm
; top infill extrusion width = 0.48mm

M107
M190 S55 ; set bed temperature
M104 S190 ; set temperature
G28 ; home all axes
G1 Z5 F5000 ; lift nozzle

M109 S190 ; wait for temperature to be reached
G21 ; set units to millimeters
G90 ; use absolute coordinates
M82 ; use absolute distances for extrusion
G92 E0
G1 Z0.350 F7800.000
G1 E-3.00000 F2400.00000
G92 E0
G1 X31.668 Y39.274 F7800.000
G1 E3.00000 F2400.00000
G1 X33.820 Y38.481 E3.20854 F1800.000
G1 X35.000 Y38.375 E3.31625
G1 X85.000 Y38.375 E7.86273
G1 X87.259 Y38.772 E8.07127
G1 X89.247 Y39.915 E8.27982 F1800.000
G1 X90.726 Y41.668 E8.48836
G1 X91.519 Y43.820 E8.69690
G1 X91.625 Y45.000 E8.80461
G1 X91.625 Y55.000 E9.71390
G1 X90.925 Y57.963 E9.99071
G1 X80.925 Y77.963 E12.02396
G1 X79.560 Y79.806 E12.23250
G1 X77.648 Y81.072 E12.44104
G1 X75.000 Y81.625 E12.68705
G1 X45.000 Y81.625 E15.41494
G1 X42.741 Y81.228 E15.62348
G1 X40.753 Y80.085 E15.83202
G1 X39.075 Y77.963 E16.07803
G1 X29.075 Y57.963 E18.11127
G1 X28.375 Y55.000 E18.38808
G1 X28.375 Y45.000 E19.29738
G1 X28.772 Y42.741 E19.50592
G1 X29.915 Y40.753 E19.71446
G1 X31.622 Y39.313 E19.91755
G1 E16.91755 F2400.00000
G92 E0
G1 X79.314 Y53.005 F7800.000
G1 E3.00000 F2400.00000
G1 X77.223 Y51.337 E3.24319 F1800.000
G1 X77.223 Y48.663 E3.48638
G1 X78.828 Y47.383 E3.67308
G1 X79.314 Y46.995 E3.72958 F1800.000
G1 X81.922 Y47.590 E3.97276
G1 X83.082 Y50.000 E4.21595
G1 X81.922 Y52.410 E4.45914
G1 X79.373 Y52.991 E4.69688
G1 X79.469 Y52.329 F7800.000
G1 X77.848 Y51.036 E4.88534 F1800.000
G1 X77.848 Y48.964 E5.07381
G1 X79.218 Y47.871 E5.23314
G1 X79.469 Y47.671 E5.26227 F1800.000
G1 X81.489 Y48.133 E5.45073
G1 X82.388 Y50.000 E5.63920
G1 X81.489 Y51.867 E5.82766
G1 X79.527 Y52.315 E6.01066
G1 X79.156 Y52.578 F7800.000
G1 E3.01066 F2400.00000
G92 E0
G1 X55.477 Y68.000 F7800.000
G1 E3.00000 F2400.00000
G1 X53.075 Y71.307 E3.37172 F1800.000
G1 X49.187 Y70.044 E3.74343
G1 X49.187 Y65.956 E4.11515
G1 X53.075 Y64.693 E4.48687
G1 X55.442 Y67.951 E4.85313
G1 X54.705 Y68.000 F7800.000
G1 X52.836 Y70.573 E5.14228 F1800.000
G1 X49.812 Y69.590 E5.43143
G1 X49.812 Y66.410 E5.72059
G1 X52.836 Y65.427 E6.00973
G1 X54.670 Y67.951 E6.29343
G1 X53.933 Y68.000 F7800.000
G1 X52.597 Y69.838 E6.50002 F1800.000
G1 X50.436 Y69.136 E6.70660
G1 X50.436 Y66.864 E6.91319
G1 X52.597 Y66.162 E7.11977
G1 X53.897 Y67.951 E7.32091
G1 X54.230 Y68.268 F7800.000
G1 X53.075 Y55.307 F7800.000
G1 X49.187 Y54.044 E7.69262 F1800.000
G1 X49.187 Y49.956 E8.06433
G1 X53.075 Y48.693 E8.43605
G1 X55.477 Y52.000 E8.80777
G1 X53.110 Y55.259 E9.17403
G1 X52.836 Y54.573 F7800.000
G1 X49.812 Y53.590 E9.46318 F1800.000
G1 X49.812 Y50.410 E9.75233
G1 X52.836 Y49.427 E10.04147
G1 X54.705 Y52.000 E10.33063
G1 X52.871 Y54.524 E10.61433
G1 X52.597 Y53.838 F7800.000
G1 X50.436 Y53.136 E10.82091 F1800.000
G1 X50.436 Y50.864 E11.02749
G1 X52.597 Y50.162 E11.23408
G1 X53.933 Y52.000 E11.44066
G1 X52.632 Y53.789 E11.64180
G1 X52.434 Y54.203 F7800.000
G1 X65.187 Y54.044 F7800.000
G1 X65.187 Y49.956 E12.01351 F1800.000
G1 X69.075 Y48.693 E12.38522
G1 X71.477 Y52.000 E12.75695
G1 X69.075 Y55.307 E13.12867
G1 X65.244 Y54.063 E13.49492
G1 X65.812 Y53.590 F7800.000
G1 X65.812 Y50.410 E13.78407 F1800.000
G1 X68.836 Y49.427 E14.07322
G1 X70.705 Y52.000 E14.36237
G1 X68.836 Y54.573 E14.65153
G1 X65.869 Y53.609 E14.93522
G1 X66.436 Y53.136 F7800.000
G1 X66.436 Y50.864 E15.14180 F1800.000
G1 X68.597 Y50.162 E15.34839
G1 X69.933 Y52.000 E15.55497
G1 X68.597 Y53.838 E15.76156
G1 X66.494 Y53.155 E15.96269
G1 X66.039 Y53.094 F7800.000
G1 X69.075 Y64.693 F7800.000
G1 X71.477 Y68.000 E16.33441 F1800.000
G1 X69.075 Y71.307 E16.70613
G1 X65.187 Y70.044 E17.07784
G1 X65.187 Y65.956 E17.44956
G1 X69.017 Y64.711 E17.81582
G1 X68.836 Y65.427 F7800.000
G1 X70.705 Y68.000 E18.10497 F1800.000
G1 X68.836 Y70.573 E18.39413
G1 X65.812 Y69.590 E18.68327
G1 X65.812 Y66.410 E18.97243
G1 X68.779 Y65.446 E19.25612
G1 X68.597 Y66.162 F7800.000
G1 X69.933 Y68.000 E19.46271 F1800.000
G1 X68.597 Y69.838 E19.66930
G1 X66.436 Y69.136 E19.87588
G1 X66.436 Y66.864 E20.08247
G1 X68.540 Y66.180 E20.28359
G1 X68.944 Y65.962 F7800.000
G1 X73.400 Y53.400 F7800.000
G1 X73.400 Y73.400 E22.10218 F1800.000
G1 X46.600 Y73.400 E24.53914
G1 X46.600 Y53.400 E26.35773
G1 X41.886 Y53.400 E26.78634
G1 X41.849 Y53.067 E26.81681
G1 X42.354 Y52.952 E26.86396
G1 X43.776 Y50.000 E27.16188
G1 X42.354 Y47.048 E27.45979
G1 X41.849 Y46.933 E27.50694
G1 X41.886 Y46.600 E27.53741
G1 X78.405 Y46.600 E30.85807
G1 X78.493 Y46.851 E30.88226
G1 X76.598 Y48.362 E31.10261
G1 X76.598 Y51.638 E31.40053
G1 X78.493 Y53.149 E31.62089
G1 X78.405 Y53.400 E31.64508
G1 X73.460 Y53.400 E32.09471
G1 E29.09471 F2400.00000
G92 E0
G1 X81.849 Y46.933 F7800.000
G1 E3.00000 F2400.00000
G1 X81.886 Y46.600 E3.03047 F1800.000
G1 X83.400 Y46.600 E3.16815
G1 X83.400 Y48.549 E3.34535
G1 X83.109 Y48.615 E3.37254
G1 X82.354 Y47.048 E3.53069
G1 X81.907 Y46.946 E3.57238
G1 X83.109 Y51.385 F7800.000
G1 X83.400 Y51.451 E3.59957 F1800.000
G1 X83.400 Y53.400 E3.77678
G1 X81.886 Y53.400 E3.91446
G1 X81.849 Y53.067 E3.94493
G1 X82.354 Y52.952 E3.99207
G1 X83.083 Y51.439 E4.14477
G1 E1.14477 F2400.00000
G92 E0
G1 X43.082 Y50.000 F7800.000
G1 E3.00000 F2400.00000
G1 X41.922 Y52.410 E3.24319 F1800.000
G1 X39.314 Y53.005 E3.48638
G1 X37.223 Y51.337 E3.72957
G1 X37.223 Y48.663 E3.97276
G1 X38.828 Y47.383 E4.15946
G1 X39.314 Y46.995 E4.21596 F1800.000
G1 X41.922 Y47.590 E4.45915
G1 X43.056 Y49.946 E4.69688
G1 X42.388 Y50.000 F7800.000
G1 X41.489 Y51.867 E4.88535 F1800.000
G1 X39.469 Y52.329 E5.07381
G1 X37.848 Y51.036 E5.26227
G1 X37.848 Y48.964 E5.45074
G1 X39.218 Y47.871 E5.61007
G1 X39.469 Y47.671 E5.63920 F1800.000
G1 X41.489 Y48.133 E5.82767
G1 X42.362 Y49.946 E6.01067
G1 X42.701 Y50.249 F7800.000
G1 E3.01067 F2400.00000
G92 E0
G1 X38.493 Y46.851 F7800.000
G1 E3.00000 F2400.00000
G1 X36.600 Y48.361 E3.22018 F1800.000
G1 X36.600 Y46.600 E3.38029
G1 X38.405 Y46.600 E3.54445
G1 X38.473 Y46.794 E3.56318
G1 X36.600 Y51.639 F7800.000
G1 X38.493 Y53.149 E3.78336 F1800.000
G1 X38.405 Y53.400 E3.80755
G1 X36.600 Y53.400 E3.97171
G1 X36.600 Y51.699 E4.12637
G1 X45.975 Y54.025 F7800.000
G1 X35.975 Y54.025 E5.03566 F1800.000
G1 X35.975 Y45.975 E5.76767
G1 X84.025 Y45.975 E10.13685
G1 X84.025 Y54.025 E10.86886
G1 X74.025 Y54.025 E11.77815
G1 X74.025 Y74.025 E13.59674
G1 X45.975 Y74.025 E16.14734
G1 X45.975 Y54.085 E17.96047
G1 X45.350 Y54.650 F7800.000
G1 X35.350 Y54.650 E18.86977 F1800.000
G1 X35.350 Y45.350 E19.71541
G1 X84.650 Y45.350 E24.19824
G1 X84.650 Y54.650 E25.04389
G1 X74.650 Y54.650 E25.95318
G1 X74.650 Y74.650 E27.77178
G1 X45.350 Y74.650 E30.43601
G1 X45.350 Y54.710 E32.24915
G1 X45.350 Y54.250 F7800.000
G1 X41.557 Y53.269 F7800.000
G1 X38.668 Y53.594 E32.80956 F1800.000
G1 X37.422 Y53.002 F7800.000
G1 X37.031 Y52.610 E32.85989 F1800.000
G1 X36.599 Y51.239 F7800.000
G1 X36.599 Y48.761 E33.33768 F1800.000
G1 X37.422 Y47.263 F7800.000
G1 X37.137 Y46.978 E33.37434 F1800.000
G1 X38.668 Y46.406 F7800.000
G1 X41.557 Y46.731 E33.93475 F1800.000
G1 X43.084 Y47.528 F7800.000
G1 X48.808 Y53.252 E34.67384 F1800.000
G1 X48.808 Y52.365 E34.75484
G1 X43.422 Y46.978 E35.45029
G1 X44.309 Y46.978 E35.53129
G1 X48.808 Y51.478 E36.11218
G1 X48.808 Y50.590 E36.19318
G1 X45.196 Y46.978 E36.65952
G1 X46.083 Y46.978 E36.74052
G1 X48.819 Y49.714 E37.09369
G1 X49.488 Y49.496 E37.15797
G1 X46.971 Y46.978 E37.48304
G1 X47.858 Y46.978 E37.56404
G1 X50.158 Y49.279 E37.86102
G1 X50.828 Y49.061 E37.92530
G1 X48.745 Y46.978 E38.19418
G1 X49.632 Y46.978 E38.27518
G1 X51.497 Y48.843 E38.51597
G1 X52.167 Y48.626 E38.58025
G1 X50.520 Y46.978 E38.79295
G1 X51.407 Y46.978 E38.87395
G1 X52.837 Y48.408 E39.05856
G1 X55.128 Y50.700 F7800.000
G1 X68.837 Y64.408 E40.82843 F1800.000
G1 X68.167 Y64.626 E40.89271
G1 X55.738 Y52.196 E42.49744
G1 X55.364 Y52.710 E42.55543
G1 X67.497 Y64.843 E44.12190
G1 X66.828 Y65.061 E44.18619
G1 X54.991 Y53.224 E45.71441
G1 X54.618 Y53.738 E45.77240
G1 X66.158 Y65.279 E47.26237
G1 X65.488 Y65.496 E47.32665
G1 X54.244 Y54.252 E48.77836
G1 X53.871 Y54.766 E48.83635
G1 X64.819 Y65.714 E50.24981
G1 X64.808 Y66.590 E50.32985
G1 X53.497 Y55.280 E51.79014
G1 X53.091 Y55.761 E51.84762
G1 X64.808 Y67.478 E53.36039
G1 X64.808 Y68.365 E53.44139
G1 X51.777 Y55.333 E55.12384
G1 X50.462 Y54.906 E55.25000
G1 X64.808 Y69.252 E57.10215
G1 X61.480 Y73.022 F7800.000
G1 X55.050 Y66.592 E57.93222 F1800.000
G1 X55.750 Y68.179 F7800.000
G1 X60.592 Y73.022 E58.55739 F1800.000
G1 X59.705 Y73.022 E58.63839
G1 X55.377 Y68.693 E59.19722
G1 X55.003 Y69.207 E59.25521
G1 X58.818 Y73.022 E59.74769
G1 X57.931 Y73.022 E59.82869
G1 X54.630 Y69.721 E60.25482
G1 X54.257 Y70.235 E60.31281
G1 X57.043 Y73.022 E60.67259
G1 X56.156 Y73.022 E60.75359
G1 X53.883 Y70.749 E61.04703
G1 X53.510 Y71.263 E61.10502
G1 X55.269 Y73.022 E61.33211
G1 X54.381 Y73.022 E61.41311
G1 X53.135 Y71.775 E61.57410
G1 X51.820 Y71.348 E61.70026
G1 X53.494 Y73.022 E61.91639
G1 X52.607 Y73.022 E61.99739
G1 X50.506 Y70.921 E62.26865
G1 X49.192 Y70.494 E62.39481
G1 X51.720 Y73.022 E62.72120
G1 X50.832 Y73.022 E62.80220
G1 X46.978 Y69.168 E63.29980
G1 X46.978 Y68.280 E63.38080
G1 X48.808 Y70.110 E63.61704
G1 X48.808 Y69.223 E63.69804
G1 X46.978 Y67.393 E63.93428
G1 X46.978 Y66.506 E64.01528
G1 X48.808 Y68.336 E64.25152
G1 X48.808 Y67.448 E64.33252
G1 X46.978 Y65.618 E64.56876
G1 X46.978 Y64.731 E64.64976
G1 X48.808 Y66.561 E64.88600
G1 X48.841 Y65.707 E64.96407
G1 X46.978 Y63.844 E65.20454
G1 X46.978 Y62.957 E65.28554
G1 X49.511 Y65.489 E65.61247
G1 X50.180 Y65.271 E65.67675
G1 X46.978 Y62.069 E66.09014
G1 X46.978 Y61.182 E66.17114
G1 X50.850 Y65.054 E66.67099
G1 X51.520 Y64.836 E66.73527
G1 X46.978 Y60.295 E67.32158
G1 X46.978 Y59.408 E67.40258
G1 X52.189 Y64.619 E68.07535
G1 X52.859 Y64.401 E68.13963
G1 X46.978 Y58.520 E68.89885
G1 X46.978 Y57.633 E68.97985
G1 X62.367 Y73.022 E70.96662
G1 X63.254 Y73.022 E71.04762
G1 X46.978 Y56.746 E73.14894
G1 X46.978 Y55.859 E73.22994
G1 X64.141 Y73.022 E75.44582
G1 X65.029 Y73.022 E75.52682
G1 X46.978 Y54.971 E77.85724
G1 X46.978 Y54.084 E77.93824
G1 X65.916 Y73.022 E80.38321
G1 X66.803 Y73.022 E80.46421
G1 X44.028 Y50.246 E83.40467
G1 X43.739 Y50.845 F7800.000
G1 X45.916 Y53.022 E83.68566 F1800.000
G1 X45.029 Y53.022 E83.76666
G1 X43.451 Y51.444 E83.97033
G1 X43.163 Y52.043 E84.03101
G1 X44.141 Y53.022 E84.15736
G1 X43.254 Y53.022 E84.23836
G1 X42.874 Y52.642 E84.28739
G1 X43.908 Y49.239 F7800.000
G1 X67.690 Y73.022 E87.35791 F1800.000
G1 X68.578 Y73.022 E87.43891
G1 X66.462 Y70.906 E87.71199
G1 X67.777 Y71.334 E87.83816
G1 X69.465 Y73.022 E88.05611
G1 X69.091 Y71.761 E88.17618
G1 X70.352 Y73.022 E88.33900
G1 X71.239 Y73.022 E88.42000
G1 X69.497 Y71.280 E88.64489
G1 X69.871 Y70.766 E88.70288
G1 X72.127 Y73.022 E88.99413
G1 X72.998 Y73.006 E89.07367
G1 X70.244 Y70.252 E89.42917
G1 X70.618 Y69.738 E89.48716
G1 X73.022 Y72.142 E89.79754
G1 X73.022 Y71.255 E89.87854
G1 X70.991 Y69.224 E90.14072
G1 X71.364 Y68.710 E90.19871
G1 X73.022 Y70.368 E90.41269
G1 X73.022 Y69.480 E90.49369
G1 X71.738 Y68.196 E90.65945
G1 X71.128 Y66.700 F7800.000
G1 X73.022 Y68.593 E90.90390 F1800.000
G1 X73.022 Y67.706 E90.98490
G1 X52.294 Y46.978 E93.66098
G1 X53.181 Y46.978 E93.74198
G1 X73.022 Y66.819 E96.30350
G1 X73.022 Y65.931 E96.38450
G1 X54.069 Y46.978 E98.83147
G1 X54.956 Y46.978 E98.91247
G1 X73.022 Y65.044 E101.24489
G1 X73.022 Y64.157 E101.32589
G1 X55.843 Y46.978 E103.54376
G1 X67.378 Y46.978 F7800.000
G1 X68.815 Y48.415 E103.72930 F1800.000
G1 X68.145 Y48.633 E103.79358
G1 X66.490 Y46.978 E104.00721
G1 X65.603 Y46.978 E104.08821
G1 X67.475 Y48.851 E104.32993
G1 X66.806 Y49.068 E104.39421
G1 X64.716 Y46.978 E104.66402
G1 X63.829 Y46.978 E104.74502
G1 X66.136 Y49.286 E105.04293
G1 X65.466 Y49.503 E105.10721
G1 X62.941 Y46.978 E105.43321
G1 X62.054 Y46.978 E105.51421
G1 X64.808 Y49.732 E105.86979
G1 X64.808 Y50.620 E105.95079
G1 X61.167 Y46.978 E106.42092
G1 X60.279 Y46.978 E106.50192
G1 X64.808 Y51.507 E107.08661
G1 X64.808 Y52.394 E107.16761
G1 X59.392 Y46.978 E107.86684
G1 X58.505 Y46.978 E107.94784
G1 X64.808 Y53.282 E108.76163
G1 X64.808 Y54.169 E108.84263
G1 X57.618 Y46.978 E109.77097
G1 X56.730 Y46.978 E109.85197
G1 X73.022 Y63.270 E111.95529
G1 X73.022 Y62.382 E112.03629
G1 X65.105 Y54.465 E113.05844
G1 X66.419 Y54.892 E113.18460
G1 X73.022 Y61.495 E114.03706
G1 X73.022 Y60.608 E114.11806
G1 X67.733 Y55.319 E114.80083
G1 X69.048 Y55.746 E114.92700
G1 X73.022 Y59.721 E115.44008
G1 X73.022 Y58.833 E115.52108
G1 X69.485 Y55.297 E115.97767
G1 X69.858 Y54.783 E116.03566
G1 X73.022 Y57.946 E116.44405
G1 X73.022 Y57.059 E116.52505
G1 X70.232 Y54.269 E116.88524
G1 X70.605 Y53.755 E116.94323
G1 X73.022 Y56.171 E117.25520
G1 X73.022 Y55.284 E117.33620
G1 X70.979 Y53.241 E117.59998
G1 X71.352 Y52.727 E117.65797
G1 X73.022 Y54.397 E117.87354
G1 X73.022 Y53.510 E117.95454
G1 X71.725 Y52.213 E118.12190
G1 X71.206 Y50.807 F7800.000
G1 X73.421 Y53.022 E118.40781 F1800.000
G1 X74.308 Y53.022 E118.48881
G1 X68.265 Y46.978 E119.26905
G1 X69.152 Y46.978 E119.35005
G1 X75.195 Y53.022 E120.13028
G1 X76.083 Y53.022 F7800.000
G1 X70.039 Y46.978 E120.91052 F1800.000
G1 X70.927 Y46.978 E120.99152
G1 X76.970 Y53.022 E121.77175
G1 X76.220 Y51.384 F7800.000
G1 X71.814 Y46.978 E122.34059 F1800.000
G1 X72.701 Y46.978 E122.42159
G1 X76.220 Y50.497 E122.87587
G1 X76.220 Y49.610 E122.95688
G1 X73.588 Y46.978 E123.29661
G1 X74.476 Y46.978 E123.37761
G1 X76.220 Y48.722 E123.60279
G1 X76.450 Y48.065 F7800.000
G1 X75.363 Y46.978 E123.74308 F1800.000
G1 X76.250 Y46.978 E123.82408
G1 X76.943 Y47.671 E123.91355
G1 X77.137 Y46.978 E123.97926
G1 X77.437 Y47.278 E124.01790
G1 E121.01790 F2400.00000
G92 E0
G1 X46.978 Y70.055 F7800.000
G1 E3.00000 F2400.00000
G1 X49.945 Y73.022 E3.38304 F1800.000
G1 X49.058 Y73.022 E3.46404
G1 X46.978 Y70.942 E3.73254
G1 X46.978 Y71.829 E3.81354
G1 X48.171 Y73.022 E3.96748
G1 X47.283 Y73.022 E4.04848
G1 X46.978 Y72.717 E4.08787
G1 E1.08787 F2400.00000
G92 E0
G1 X78.668 Y46.406 F7800.000
G1 E3.00000 F2400.00000
G1 X81.557 Y46.731 E3.56041 F1800.000
G1 X83.324 Y48.887 F7800.000
G1 X83.563 Y49.935 E3.65822 F1800.000
G1 X83.563 Y50.065 E3.67000
G1 X83.324 Y51.113 E3.76781
G1 X81.557 Y53.269 F7800.000
G1 X78.668 Y53.594 E4.32822 F1800.000
G1 Z0.650 F7800.000
G1 E1.32822 F2400.00000
G92 E0
G1 X49.790 Y66.395 F7800.000
G1 E3.00000 F2400.00000
G1 X52.844 Y65.402 E3.16775 F900.000
G1 X54.731 Y68.000 E3.33550
G1 X52.844 Y70.598 E3.50325
G1 X49.790 Y69.605 E3.67099
G1 X49.790 Y66.455 E3.83561
G1 X50.209 Y66.699 F7800.000
G1 X52.684 Y65.895 E3.97155 F900.000
G1 X54.214 Y68.000 E4.10751
G1 X52.684 Y70.105 E4.24346
G1 X50.209 Y69.301 E4.37940
G1 X50.209 Y66.759 E4.51222
G1 X50.586 Y66.973 F7800.000
G1 X52.540 Y66.338 E4.59820 F900.000
G1 X53.747 Y68.000 E4.68418
G1 X52.540 Y69.662 E4.77016
G1 X50.586 Y69.027 E4.85614
G1 X50.586 Y67.033 E4.93961
G1 X50.503 Y66.582 F7800.000
G1 X52.844 Y54.598 F7800.000
G1 X49.790 Y53.605 E5.10735 F900.000
G1 X49.790 Y50.395 E5.27510
G1 X52.844 Y49.402 E5.44285
G1 X54.731 Y52.000 E5.61060
G1 X52.879 Y54.549 E5.77521
G1 X52.684 Y54.105 F7800.000
G1 X50.209 Y53.301 E5.91116 F900.000
G1 X50.209 Y50.699 E6.04711
G1 X52.684 Y49.895 E6.18305
G1 X54.214 Y52.000 E6.31900
G1 X52.719 Y54.057 E6.45182
G1 X52.540 Y53.662 F7800.000
G1 X50.586 Y53.027 E6.53780 F900.000
G1 X50.586 Y50.973 E6.62378
G1 X52.540 Y50.338 E6.70975
G1 X53.747 Y52.000 E6.79574
G1 X52.575 Y53.613 E6.87920
G1 X52.377 Y54.027 F7800.000
G1 X43.106 Y50.000 F7800.000
G1 X41.936 Y52.428 E7.02000 F900.000
G1 X39.309 Y53.028 E7.16080
G1 X37.202 Y51.347 E7.30160
G1 X37.202 Y48.653 E7.44240
G1 X38.595 Y47.542 E7.53546
G1 X39.309 Y46.972 E7.58319 F900.000
G1 X41.936 Y47.572 E7.72399
G1 X43.080 Y49.946 E7.86165
G1 X42.641 Y50.000 F7800.000
G1 X41.646 Y52.065 E7.98137 F900.000
G1 X39.412 Y52.574 E8.10109
G1 X37.621 Y51.146 E8.22081
